icons/coins.svg

<svg width="48" height="48" viewBox="0 0 48 48" fill="none" xmlns="http://www.w3.org/2000/svg">
<path d="M37.9725 27.9747C39.176 26.0853 39.9049 23.8642 39.9914 21.4791C39.9971 21.3201 40 21.1604 40 21C40 13.8203 34.1797 8 27 8C24.4335 8 22.0407 8.74375 20.0253 10.0275C18.6579 10.1048 17.3336 10.3437 16.0714 10.7254C17.0119 9.72549 18.088 8.85463 19.2705 8.14227C19.3126 8.1169 19.3548 8.09173 19.3972 8.06676C21.6131 6.76136 24.1938 6.00916 26.9496 6.00008L26.9654 6.00004L27 6C35.2843 6 42 12.7157 42 21C42 21.1346 41.9983 21.2689 41.9947 21.4027L41.9934 21.4513C41.9188 23.9751 41.2208 26.3424 40.0481 28.4045C40.0103 28.4709 39.972 28.537 39.9333 28.6028C39.2073 29.8352 38.3101 30.9547 37.2746 31.9286C37.6563 30.6664 37.8953 29.3422 37.9725 27.9747Z" fill="black"/>
<path fill-rule="evenodd" clip-rule="evenodd" d="M25.7721 22.6668C25.2235 21.1145 23.7432 20 22 20V19H20V20C17.7909 20 16 21.7909 16 24C16 26.2091 17.7909 28 20 28V32C19.1307 32 18.3886 31.4449 18.1135 30.6668C17.9295 30.146 17.3582 29.8731 16.8375 30.0572C16.3167 30.2412 16.0438 30.8125 16.2279 31.3332C16.7765 32.8855 18.2568 34 20 34V35H22V34C24.2091 34 26 32.2091 26 30C26 27.7909 24.2091 26 22 26V22C22.8693 22 23.6114 22.5551 23.8865 23.3332C24.0705 23.854 24.6418 24.1269 25.1625 23.9428C25.6833 23.7588 25.9562 23.1875 25.7721 22.6668ZM20 22C18.8954 22 18 22.8954 18 24C18 25.1046 18.8954 26 20 26V22ZM22 32C23.1046 32 24 31.1046 24 30C24 28.8954 23.1046 28 22 28V32Z" fill="black"/>
<path fill-rule="evenodd" clip-rule="evenodd" d="M36 27C36 35.2843 29.2843 42 21 42C12.7157 42 6 35.2843 6 27C6 18.7157 12.7157 12 21 12C29.2843 12 36 18.7157 36 27ZM34 27C34 34.1797 28.1797 40 21 40C13.8203 40 8 34.1797 8 27C8 19.8203 13.8203 14 21 14C28.1797 14 34 19.8203 34 27Z" fill="black"/>
</svg>

<svg
  xmlns="http://www.w3.org/2000/svg"
  width="24"
  height="24"
  viewBox="0 0 24 24"
  fill="none"
  stroke="currentColor"
  stroke-width="2"
  stroke-linecap="round"
  stroke-linejoin="round"
>
  <path d="M37.973 27.975A12.93 12.93 0 0 0 40 21c0-7.18-5.82-13-13-13-2.567 0-4.96.744-6.975 2.027a17 17 0 0 0-3.954.698 15 15 0 0 1 3.326-2.658A14.93 14.93 0 0 1 26.95 6H27c8.284 0 15 6.716 15 15q0 .202-.005.403l-.002.048a14.9 14.9 0 0 1-2.06 7.152 15 15 0 0 1-2.658 3.326c.381-1.263.62-2.587.697-3.954" />
  <path
    fill-rule="evenodd"
    d="M25.772 22.667A4 4 0 0 0 22 20v-1h-2v1a4 4 0 0 0 0 8v4c-.87 0-1.611-.555-1.887-1.333a1 1 0 1 0-1.885.666A4 4 0 0 0 20 34v1h2v-1a4 4 0 0 0 0-8v-4c.87 0 1.611.555 1.887 1.333a1 1 0 1 0 1.885-.666M20 22a2 2 0 1 0 0 4zm2 10a2 2 0 1 0 0-4z"
    clip-rule="evenodd"
  />
  <path
    fill-rule="evenodd"
    d="M36 27c0 8.284-6.716 15-15 15S6 35.284 6 27s6.716-15 15-15 15 6.716 15 15m-2 0c0 7.18-5.82 13-13 13S8 34.18 8 27s5.82-13 13-13 13 5.82 13 13"
    clip-rule="evenodd"
  />
</svg>
